!!!OTL: 632. Der Kuss in Ehren.
!!!ARE: Europa, Mitteleuropa, Deutschland, Hessen, Darmstadt
!!!SCT: E0632
!!!TXL: @@DE
!!!YEM: Copyright 1995, estate of Helmut Schaffrath.
**kern	**text
*ICvox	*
*M2/4	*
*k[f#c#g#]	*
*A:	*
=1	=1
!LO:TX:a:t=Etwas bewegt.	!
{4a	Schwarʒ-
(8a	-brau-
8b/)	-nes
=2	=2
{[8.cc#	Mäg-
16cc#	-de-
8cc#]}	-lein,
{8cc#	wo
=3	=3
8ee	wen-
8dd	-deſt
8b/	du
8g#	dich
=4	=4
4a	hin?
8r}	.
{8cc#	Ein'n
=5	=5
8.b/	An-
16a	-de-
8g#	-ren
8a	ʒu
=6	=6
(8.bL	lie-
16cc#J)	.
8b}	-ben,
{8ee	mich
=7	=7
8.b	a-
16a	-ber
8g#	ʒu
8a	be-
=8	=8
(8.bL	-trü-
16cc#J)	.
8b}	-ben
{8e	ach
=9	=9
4a	ſchwarʒ-
8a	-brau-
8b/	-nes
=10	=10
8.cc#	Mäg-
16cc#	-de-
8cc#}	-lein,
{8cc#	was
=11	=11
8ee	haſt
8dd	du
8b/	in
8g#	dem
=12	=12
4a	Sinn?
4r}	.
==	==
!!!AGN: Liebes - Lied
!!!ONB: ESAC (Essen Associative Code) Database: ERK2
!!!AMT: simple duple
!!!AIN: vox
!!!EED: Helmut Schaffrath
!!!EEV: 1.0
!!!GTL: Liebeslieder [Neuere (aus dem 18. bis 19. Jahrh.) - Liebeslust]
!!!URL-scan: https://rosdok.uni-rostock.de/mcrviewer/recordIdentifier/rosdok_ppn745177662/iview2/phys_0446.iview2?x=193.8995864193107&y=626.9575876155868&scale=0.7029437510502773&rotation=0&layout=singlePageLayout
!!!ENC: Anna Maria Matuszewska
!!!EEV: 2024/12/12
*-	*-
